X:80
T:Anna
S:American Veteran Fifer #80
M:2/4
L:1/8
Q:1/8=180
K:D 
%%MIDI program 72
%%MIDI transpose 8
%%MIDI ratio 3 1
A | dd d/A/d/e/ | f/d/g/e/ f<e | ee e/A/d/e/ | f/d/g/f/ e<d |
ff f/e/f/g/ | a/f/b/a/ g<e | e/d/c/d/ e/g/f/e/ | dfd :|
|: F/G/ | Af f/e/d/A/ | B/A/B/c/ d<A | Ag g/f/e/d/ | d/A/f/A/ e<d |
Aa a/g/f/e/ | d/A/g/A/ g<e | f/e/d/A/ g/f/e/A/ | a/g/e/c/ d :|


